!!!OTL: Suse, Buebiken, suse, wo wohnt denn Peter Kruse ?
!!!ARE: Europa, Mitteleuropa, Deutschland, Provinz Sachsen
!!!SCT: D0159
!!!YEM: Copyright 1995, estate of Helmut Schaffrath.
**kern
*ICvox
*Ivox
*M2/4
*k[b-]
*F:
=1
{8a
8a
16g
16g
8g
=2
4f
8c}
{8c
=3
8a
8a
8g
8g
=4
4f
8c
8r}
=5
{8a
8a
16g
16a
8g
=6
4f
8c
8r}
=7
{8a
8a
8a
8cc
=8
8cc
8b-
4b-}
=9
{8a
8a
8a
8cc
=10
16cc
16cc
8b-
4b-}
=11
{8a
8a
8g
8g
=12
4f
8c
8r}
=13
{8a
8a
8g
8g
=14
4f
8c
8r}
==
!!!AGN: Kinder - Lied
!! Grundton ?? ; Inzipit = Variante zum Lied; Variante zu Lied D0158 ?
!!!ONB: ESAC (Essen Associative Code) Database: DVA
!!!AMT: simple duple
!!!AIN: vox
!!!EED: Helmut Schaffrath
!!!EEV: 1.0
*-
